X: 1839
T: Argan Mor
R: hornpipe
M: 4/4
K: Dmajor
F4 F2>E2|F4 A2>F2|A8|A8|
B4 B2>A2|BAF2 A2F2|D8|D8|
D4 FFF2|A4 F2A2|F8|F8|
E4 F2D2|B4 D2>E2|F8|F8|

